X:1
T:Not For Joe
H:Used as tune for "Dilwyn Stick Dance"
C:Traditional.
M:4/4
L:1/8
K:G
P:A
D2 G2 D2 G2 | F2 E2 F2 E2 | D2 G2 D2 G2 | F2 G2 A4 |
D2 G2 D2 G2 | F2 E2 F2 E2 | D4 B3 A | G2 F2 G4 :|
P:B
B3 A G2 B2 | c4 A4 | B3 A G2 B2 | A2 F2 D4 |
B3 A G2 B2 | c4 A4 | D4 B3 A | G2 F2 G4 :|
P:Song
  G2  G2    DD     DD   | E2  E2   DD       DD     |
w:My friend Bil-ly has a  ten foot wil-lie  And he
  GG        GG     A2   F2 | G6     D2 |
w:showed it to the girl next door.  She
  GG         GG    D2    D2 | EE     EE     D2   D2 |
w:thought it was a snake and  hit it with a rake and
  GG       GG    A2   F2  | G8 |]
w:now it's on-ly five foot  four.
